packages/kaspersky-hexa-ui-icons/src/iconsSVGs/24/RestoreFileFromQuarantine.svg

<svg width="24" height="24" viewBox="0 0 24 24" fill="none" xmlns="http://www.w3.org/2000/svg">
<path d="M2 12C2 6.47715 6.47715 2 12 2C17.5228 2 22 6.47715 22 12C22 12.4941 21.9642 12.9798 21.895 13.4546C21.322 13.0489 20.6769 12.7372 19.9819 12.543C19.9939 12.3636 20 12.1825 20 12C20 7.58172 16.4183 4 12 4C7.58172 4 4 7.58172 4 12C4 16.4183 7.58172 20 12 20C12.6467 20 13.2754 19.9233 13.8777 19.7784C13.4267 20.3021 13.1561 20.9863 13.1561 21.7369C13.1561 21.8028 13.1583 21.8683 13.1625 21.9331C12.7812 21.9773 12.3932 22 12 22C6.47715 22 2 17.5228 2 12Z" fill="black"/>
<path d="M11.712 14.7898C11.6816 14.9621 11.6661 15.1382 11.6661 15.3169C11.6661 16.1169 11.9761 16.8669 12.5461 17.4369L13.0777 17.9685C11.7884 18.1985 10.4192 18.0192 9.17821 17.3752C9.04501 17.3061 9.00056 17.1396 9.07566 17.01L10.4452 14.6452C10.521 14.5144 10.6889 14.4718 10.8257 14.5367C11.1001 14.667 11.3975 14.7558 11.712 14.7898Z" fill="black"/>
<path d="M12.5461 13.1969L13.6714 12.0872C13.672 12.0678 13.6724 12.0484 13.6724 12.0289C13.6724 11.1076 12.9238 10.3625 11.9999 10.3625C11.0773 10.3625 10.3287 11.1076 10.3287 12.0289C10.3287 12.9501 11.0773 13.694 11.9999 13.694C12.0496 13.694 12.0988 13.6918 12.1473 13.6876C12.2612 13.513 12.3945 13.3486 12.5461 13.1969Z" fill="black"/>
<path d="M17.9133 10.3458C17.5735 10.2151 17.215 10.1641 16.8394 10.1641C16.4637 10.1641 15.7998 10.3489 15.6484 10.4151C15.3095 10.5632 14.9974 10.7756 14.7261 11.0469L14.6321 11.1397C14.4393 10.5771 14.0685 10.097 13.5872 9.76185C13.4632 9.67547 13.4164 9.5094 13.4921 9.37877L14.9306 6.89437C15.0057 6.76472 15.1724 6.71988 15.299 6.80034C16.6278 7.64472 17.5259 8.92617 17.9133 10.3458Z" fill="black"/>
<path d="M6.14289 11.958C5.99305 11.9579 5.87088 11.8369 5.87719 11.6877C5.91741 10.7356 6.18324 9.77828 6.69406 8.895C7.20223 8.01809 7.89681 7.31332 8.69852 6.80385C8.82507 6.72343 8.99157 6.76842 9.06658 6.89802L10.5043 9.38171C10.5798 9.51219 10.5332 9.67803 10.4095 9.76448C9.77808 10.2055 9.33715 10.896 9.24081 11.6951C9.22319 11.8413 9.10393 11.9591 8.95629 11.9591L6.14289 11.958Z" fill="black"/>
<path d="M17.5228 12.4176C17.9209 12.7927 17.9417 13.4281 17.569 13.8276C17.4629 13.9413 17.3514 14.0505 17.24 14.1595C17.1866 14.2119 17.1332 14.2642 17.0804 14.3169C17.237 14.3172 17.3943 14.3149 17.5519 14.3126C17.8973 14.3076 18.244 14.3026 18.5865 14.3245C20.7856 14.4656 22.5249 16.2927 22.5249 18.5269C22.5249 20.8299 20.6764 22.7009 18.3819 22.7375C18.354 22.7379 16.1612 22.738 16.1541 22.738C15.6018 22.738 15.1541 22.2903 15.1541 21.738C15.1541 21.1857 15.6018 20.738 16.1541 20.738L18.3501 20.7377C19.5543 20.7186 20.5249 19.736 20.5249 18.5269C20.5249 17.3638 19.6263 16.4098 18.4862 16.3224L17.0841 16.3184L17.5445 16.7788C17.935 17.1693 17.935 17.8025 17.5445 18.193C17.154 18.5835 16.5208 18.5835 16.1303 18.193L13.9603 16.0229C13.5697 15.6324 13.5697 14.9992 13.9603 14.6087L16.1303 12.4386C16.5137 12.0553 17.1309 12.0483 17.5228 12.4176Z" fill="black"/>
</svg>

<svg xmlns="http://www.w3.org/2000/svg" width="24" height="24" fill="none" viewBox="0 0 24 24"><path fill="#000" d="M2 12C2 6.4772 6.4772 2 12 2s10 4.4772 10 10c0 .4941-.0358.9798-.105 1.4546a6.2 6.2 0 0 0-1.9131-.9116A8 8 0 0 0 20 12c0-4.4183-3.5817-8-8-8s-8 3.5817-8 8 3.5817 8 8 8a8.02 8.02 0 0 0 1.8777-.2216c-.451.5237-.7216 1.2079-.7216 1.9585q0 .099.0064.1962A10.1 10.1 0 0 1 12 22C6.4772 22 2 17.5228 2 12"/><path fill="#000" d="M11.712 14.79a3.03 3.03 0 0 0-.046.527c0 .8.31 1.55.88 2.12l.532.532c-1.289.23-2.658.051-3.899-.593-.133-.069-.178-.236-.102-.365l1.37-2.365c.076-.131.244-.173.381-.108.274.13.572.219.886.253m.832-1.594 1.125-1.11a2 2 0 0 0 .001-.058c0-.921-.749-1.666-1.672-1.666s-1.671.745-1.671 1.666.749 1.665 1.671 1.665q.075 0 .147-.006a3.06 3.06 0 0 1 .399-.491m5.367-2.851c-.34-.131-.698-.182-1.074-.182s-1.04.185-1.191.251a3 3 0 0 0-.922.632l-.094.093c-.193-.563-.564-1.043-1.045-1.378-.124-.086-.171-.252-.095-.383l1.439-2.484c.075-.13.242-.174.368-.094 1.329.844 2.227 2.126 2.614 3.545m-11.77 1.612c-.15 0-.272-.121-.266-.27.04-.952.306-1.909.817-2.793a6.084 6.084 0 0 1 2.004-2.091c.127-.08.293-.035.368.094l1.438 2.484c.076.131.029.296-.095.383-.631.441-1.072 1.132-1.169 1.931-.018.146-.137.264-.284.264zm11.38.46c.398.375.419 1.011.046 1.41-.106.114-.218.223-.329.332q-.08.079-.16.157c.157 0 .314-.002.472-.004.345-.005.692-.01 1.035.012 2.199.141 3.938 1.968 3.938 4.202 0 2.303-1.848 4.174-4.143 4.211l-2.228.001c-.552 0-1-.448-1-1s.448-1 1-1h2.196c1.204-.019 2.175-1.002 2.175-2.211 0-1.163-.899-2.117-2.039-2.204l-1.402-.004.46.46c.391.391.391 1.024 0 1.414s-1.024.391-1.414 0l-2.17-2.17c-.391-.39-.391-1.024 0-1.414l2.17-2.17c.383-.383 1.001-.39 1.393-.021"/></svg>
